X:1
T: Babbit's Hornpipe
C:
R:Reel
I:speed 232
Q:232
K:D
M:4/4
L:1/8
|:A2|dc dA Bc df|gf ed cB AG|FA df gf ed|ce dB A2Bc|
dA eA fA gA|gf ed dc BA|df eg fa eg|f2d2 d2:|
|:fg|ag fe de fg|ba gf e2 ed|cA eA fA gA|ed cB A2Bc|
dA eA fA gA|gf ed dc BA|df eg fa eg|f2d2 d2:|
